X:1
T:Drowsy Maggie
S:Eric Foxley
M:C|
R:Reel
L:1/8
K:EDor
"Em"~E2BE dEBE|"Em"~E2BE "D"AFDF|"Em"~E2BE dEBE|1"Em"BABc "D"dBAF:|2"Em"BABc "D"dAFA|
|:"D"d2fd "A7"c2ec|"D"defg "A7"afge|1"D"d2fd "A"c2ec|"G"BABc "D"dAFA:|2 "D"af"C#"ge "B"fd"A"ec|"G"BABc "D"dAFD|]

